X: 5
T: The Bluebell Polka
R: barndance
M: 4/4
L: 1/8
K: Dmaj
(3Bdg|b2b2 gfge|d2d2 B3G|FGAB c2e2|ed^cd B2(3Bdg|b2b2 gfge|d2d2 B3G|FGAB cdef|1g2b2g2:|2g2b2g4||:B2B2 Bcd2|B2B2 Bcd2|cBcB (3cBA G2|cBcB (3cBA G2|B2B2 Bcd2|B2B2 Bcd2|cBcB (3cBA GA|G2B2G4:||A2A2 FAdf|a2a2 f4|a2(3^gag =g2e2|b2a2 ^g2a2|A2A2 FAdf|a2a2 f4|a2^g2 =g2e2|d4 d4:|


Tune 3352	Setting 16410

